images/svg/icons/skills/google/google-suite-icon.svg

<svg xmlns="http://www.w3.org/2000/svg" xmlns:xlink="http://www.w3.org/1999/xlink" viewBox="0 0 32 32" width="64" height="64"><defs><path id="A" d="M44.5 20H24v8.5h11.8C34.7 33.9 30.1 37 24 37c-7.2 0-13-5.8-13-13s5.8-13 13-13c3.1 0 5.9 1.1 8.1 2.9l6.4-6.4C34.6 4.1 29.6 2 24 2 11.8 2 2 11.8 2 24s9.8 22 22 22c11 0 21-8 21-22 0-1.3-.2-2.7-.5-4z"/></defs><clipPath id="B"><use xlink:href="#A"/></clipPath><g transform="matrix(.727273 0 0 .727273 -.954545 -1.45455)"><path d="M0 37V11l17 13z" clip-path="url(#B)" fill="#fbbc05"/><path d="M0 11l17 13 7-6.1L48 14V0H0z" clip-path="url(#B)" fill="#ea4335"/><path d="M0 37l30-23 7.9 1L48 0v48H0z" clip-path="url(#B)" fill="#34a853"/><path d="M48 48L17 24l-4-3 35-10z" clip-path="url(#B)" fill="#4285f4"/></g></svg>

<?xml version="1.0" encoding="UTF-8" standalone="no"?>
<svg
   viewBox="0 0 32 32.000011"
   width="64"
   height="64.000023"
   version="1.1"
   id="svg4"
   sodipodi:docname="google-suite-icon.svg"
   inkscape:version="1.3 (0e150ed6c4, 2023-07-21)"
   xmlns:inkscape="http://www.inkscape.org/namespaces/inkscape"
   xmlns:sodipodi="http://sodipodi.sourceforge.net/DTD/sodipodi-0.dtd"
   xmlns:xlink="http://www.w3.org/1999/xlink"
   xmlns="http://www.w3.org/2000/svg"
   xmlns:svg="http://www.w3.org/2000/svg">
  <sodipodi:namedview
     id="namedview4"
     pagecolor="#ffffff"
     bordercolor="#000000"
     borderopacity="0.25"
     inkscape:showpageshadow="2"
     inkscape:pageopacity="0.0"
     inkscape:pagecheckerboard="0"
     inkscape:deskcolor="#d1d1d1"
     inkscape:zoom="8.5847183"
     inkscape:cx="25.626933"
     inkscape:cy="30.927049"
     inkscape:window-width="1920"
     inkscape:window-height="991"
     inkscape:window-x="-9"
     inkscape:window-y="-9"
     inkscape:window-maximized="1"
     inkscape:current-layer="g4" />
  <defs
     id="defs1">
    <path
       id="A"
       d="M 44.5,20 H 24 v 8.5 H 35.8 C 34.7,33.9 30.1,37 24,37 16.8,37 11,31.2 11,24 c 0,-7.2 5.8,-13 13,-13 3.1,0 5.9,1.1 8.1,2.9 L 38.5,7.5 C 34.6,4.1 29.6,2 24,2 11.8,2 2,11.8 2,24 c 0,12.2 9.8,22 22,22 11,0 21,-8 21,-22 0,-1.3 -0.2,-2.7 -0.5,-4 z" />
  </defs>
  <clipPath
     id="B">
    <use
       xlink:href="#A"
       id="use1" />
  </clipPath>
  <g
     transform="matrix(0.727273,0,0,0.727273,-1.454546,-1.454546)"
     id="g4">
    <path
       d="M 0,37 V 11 l 17,13 z"
       clip-path="url(#B)"
       fill="#fbbc05"
       id="path1"
       transform="matrix(1.0232554,0,0,1,-0.04651085,0)"
       style="stroke-width:0.988571;fill:#28283c;fill-opacity:1" />
    <path
       d="M 0,11 17,24 24,17.9 48,14 V 0 H 0 Z"
       clip-path="url(#B)"
       fill="#ea4335"
       id="path2"
       transform="matrix(1.0232554,0,0,1,-0.04651085,0)"
       style="stroke-width:0.988571;fill:#000014;fill-opacity:1" />
    <path
       d="M 0,37 30,14 37.9,15 48,0 V 48 H 0 Z"
       clip-path="url(#B)"
       fill="#34a853"
       id="path3"
       transform="matrix(1.0232554,0,0,1,-0.04651085,0)"
       style="stroke-width:0.988571;fill:#00ff00;fill-opacity:0.80000001" />
    <path
       d="M 48,48 17,24 13,21 48,11 Z"
       clip-path="url(#B)"
       fill="#4285f4"
       id="path4"
       transform="matrix(1.0232554,0,0,1,-0.04651085,0)"
       style="stroke-width:0.988571;fill:#141428;fill-opacity:1" />
  </g>
</svg>
